brandFactory_export/3.Masa/Documento_Archivo imagen_3Masa.svg

<?xml version="1.0" encoding="UTF-8"?>
<svg width="24px" height="24px" viewBox="0 0 24 24" version="1.1" xmlns="http://www.w3.org/2000/svg" xmlns:xlink="http://www.w3.org/1999/xlink">
    <title>3.Masa/Documento_Archivo imagen_3Masa</title>
    <g id="Symbols" stroke="none" stroke-width="1" fill="none" fill-rule="evenodd">
        <g id="3.Masa/Documento_Archivo-imagen_3Masa" fill="#5CB615" fill-rule="nonzero">
            <path d="M18.6605042,6.79327731 L13.810084,2.02016807 L13.810084,4.13445378 C13.810084,4.9210084 14.0621849,5.58655462 14.5462185,6.0605042 C15.0336134,6.53781513 15.7226891,6.79327731 16.5394958,6.79327731 L18.6605042,6.79327731 L18.6605042,6.79327731 Z M20.6369748,6.9210084 C20.6739496,7.00840336 20.6941176,7.10588235 20.6941176,7.20672269 L20.6941176,21.9428571 C20.6941176,22.8403361 19.9344538,23.6 19.0336134,23.6 L4.67394958,23.6 C3.78991597,23.6 3.01344538,22.8268908 3.01344538,21.9428571 L3.01344538,1.68067227 C3.01344538,0.813445378 3.80336134,0.0235294118 4.67394958,0.0235294118 L13.4134454,0.0235294118 C13.6857143,0.0235294118 13.9445378,0.127731092 14.1361345,0.319327731 L20.3815126,6.4605042 C20.5092437,6.58487395 20.5865546,6.74957983 20.6369748,6.9210084 L20.6369748,6.9210084 Z M16.9058824,9.27731092 L6.80168067,9.27731092 C6.13613445,9.27731092 5.57478992,9.79159664 5.57478992,10.3966387 L5.57478992,19.7747899 C5.57478992,20.3798319 6.13613445,20.897479 6.79831933,20.897479 L16.902521,20.897479 C17.5546218,20.897479 18.1261088,20.3731092 18.1261088,19.7747899 L18.1261088,10.3966387 C18.1327731,9.80168067 17.5579832,9.27731092 16.9058824,9.27731092 Z M8.99327731,14.5579832 C8.42521008,14.5579832 7.96470588,14.0907563 7.96470588,13.512605 C7.96470588,12.9344538 8.42521008,12.4672269 8.99327731,12.4672269 C9.56134454,12.4672269 10.0218487,12.9344538 10.0218487,13.512605 C10.0184874,14.0907563 9.55798319,14.5579832 8.99327731,14.5579832 Z M8.08571429,18.702521 C7.90756303,18.702521 7.73277311,18.6252101 7.60840336,18.4739496 C7.38991597,18.205042 7.42689076,17.8084034 7.68907563,17.5831933 L10.6134454,15.1058824 C10.8554622,14.9042017 11.2084034,14.9142857 11.4369748,15.1294118 L11.7596639,15.4386555 L13.6285714,13.9260504 C13.8504202,13.7478992 14.1663866,13.7411765 14.3882353,13.9193277 L16.1865546,15.3210084 C16.4588235,15.5327731 16.5092437,15.9294118 16.3042017,16.205042 C16.0957983,16.4840336 15.702521,16.5344538 15.4336134,16.3226891 L14.0184874,15.2201681 L12.6672269,16.312605 L13.5243697,17.1361345 C13.7731092,17.3747899 13.7865546,17.7747899 13.5512605,18.0268908 C13.3159664,18.2789916 12.9226891,18.292437 12.6739496,18.0537815 L10.9831933,16.4336134 L8.4789916,18.5546218 C8.36806723,18.6521008 8.22689076,18.702521 8.08571429,18.702521 Z" id="Documento_Archivo-imagen_3Masa"></path>
        </g>
    </g>
</svg>

<svg width="24" height="24" viewBox="0 0 24 24" xmlns="http://www.w3.org/2000/svg"><path d="M18.66 6.793L13.81 2.02v2.114c0 .787.252 1.453.736 1.927.488.477 1.177.732 1.993.732h2.122zm1.977.128a.735.735 0 01.057.286v14.736c0 .897-.76 1.657-1.66 1.657H4.674c-.884 0-1.66-.773-1.66-1.657V1.68c0-.868.79-1.657 1.66-1.657h8.74c.272 0 .53.104.722.295l6.246 6.142c.127.124.205.289.255.46zm-3.731 2.356H6.802c-.666 0-1.227.515-1.227 1.12v9.378c0 .605.561 1.122 1.223 1.122h10.105c.652 0 1.223-.524 1.223-1.122v-9.378c.007-.595-.568-1.12-1.22-1.12zm-7.913 5.281a1.037 1.037 0 01-1.028-1.045c0-.579.46-1.046 1.028-1.046.568 0 1.029.467 1.029 1.046a1.04 1.04 0 01-1.029 1.045zm-.907 4.145a.614.614 0 01-.478-.23.643.643 0 01.081-.89l2.924-2.477a.62.62 0 01.824.023l.323.31 1.869-1.513a.607.607 0 01.76-.007l1.798 1.402a.64.64 0 01.117.884.613.613 0 01-.87.118l-1.416-1.103-1.35 1.093.856.823a.637.637 0 01.027.89.615.615 0 01-.877.028l-1.69-1.62-2.505 2.12a.597.597 0 01-.393.149z" fill="#5CB615" fill-rule="nonzero"/></svg>
